X: 2006
T: The Bore.
%R: bourr\'ee
B: Henry Playford "Apollo's Banquet", London 1687 (5th Edition)
F: https://archive.org/details/apollosbanquetco01rugg
Z: 2017 John Chambers <jc:trillian.mit.edu>
M: C|
L: 1/8
K: Dm
% - - - - - - - - - -
d |\
f2g2 a>ga>d | f2g2 a3 :: a |\
a>gf>e d>cd>e | f2(de/f/) g2(ef/g/) |\
a>gf>ed>^cd>e | f2e>f d3 |]
% - - - - - - - - - -

%%sep 1 1 500
%%sep 1 1 500

